Source Code/mun/assets/flags/FIN.svg

<svg viewBox="0 0 40.5 40.5" xmlns="http://www.w3.org/2000/svg"><path d="m40.5 20.25a19.8 19.8 0 0 1 -.76 5.47 20.24 20.24 0 0 1 -17.74 14.7v.08h-1.75a20.23 20.23 0 0 1 -19.49-14.78 20.06 20.06 0 0 1 0-10.94 20.23 20.23 0 0 1 19.49-14.78h1.75v.08a20.24 20.24 0 0 1 17.74 14.7 19.8 19.8 0 0 1 .76 5.47z" fill="#fff"/><path d="m39.74 14.78a20.06 20.06 0 0 1 0 10.94h-17.74v14.78h-1.75a20.18 20.18 0 0 1 -9.18-2.2v-12.58h-10.31a20.06 20.06 0 0 1 0-10.94h10.31v-12.58a20.18 20.18 0 0 1 9.18-2.2h1.75v14.78z" fill="#003580"/></svg>

<svg xmlns="http://www.w3.org/2000/svg" viewBox="0 0 40.5 40.5"><defs><style>.cls-1{fill:#fff;}.cls-2{fill:#003580;}</style></defs><g id="Ebene_2" data-name="Ebene 2"><g id="Ńëîé_1" data-name="Ńëîé 1"><path class="cls-1" d="M40.5,20.25a19.8,19.8,0,0,1-.76,5.47A20.24,20.24,0,0,1,22,40.42v.08H20.25A20.23,20.23,0,0,1,.76,25.72a20.06,20.06,0,0,1,0-10.94A20.23,20.23,0,0,1,20.25,0H22V.08a20.24,20.24,0,0,1,17.74,14.7A19.8,19.8,0,0,1,40.5,20.25Z"/><path class="cls-2" d="M39.74,14.78a20.06,20.06,0,0,1,0,10.94H22V40.5H20.25a20.18,20.18,0,0,1-9.18-2.2V25.72H.76a20.06,20.06,0,0,1,0-10.94H11.07V2.2A20.18,20.18,0,0,1,20.25,0H22V14.78Z"/></g></g></svg>
